X:1
T:Adagio for strings
T:Subtitle
T:Subtitle
T:Samuels Barber
%%score 1 2
L:1/8
Q:1/4=72
M:4/2
K:D
V:1 treble nm="Violins I"
V:2 bass nm="Cellos"
V:1
"^Adagio" B8 G8 | B2 _B2 =B2 c2 _B2 =B2 c2 B2 | c2 d2 B2 c2 d2 c2 d2 e2 | c8 c8 x4 | %4
 B8 B2 B2 c2 d2 | B2 A2 G2 F2 [DE]2 D2 C2 D2 | E2 F2 G2 A2 B2 A2 F2 G2 | [CF]8 _B4- [GB]4 | %8
 B2 _B2 =B2 c2 _B2 =B2 c2 B2 | c2 d2 B2 c2 d2 c2 d2 e2 | c2 g2 g6 x6 |] %11
V:2
 z8 [E,D]8 | [F,C]8- x8 | [F,C]4 [G,B,F]4 F2 E4 D2 | [A,CE]12 z4 [F,A,CD]4 | [G,B,D]8- [G,B,D]8 | %5
 [E,G,B,]8- [E,G,B,]8- | [E,G,B,]8 [E,G,B,]8 | [F,_B,]8 z4 [E,D]4 | [F,C]8- [F,C]8- | %9
 [F,C]4 [G,B,F]6 E4 D2 | x8 x8 |] %11

